become/img/why_icons/phones.svg

<svg width="56" height="66" viewBox="0 0 56 66" fill="none" xmlns="http://www.w3.org/2000/svg">
<path d="M13.1 63.525H5.845C3.434 63.525 2.461 62.534 2.461 60.1V12.9C2.461 10.466 3.434 9.475 5.845 9.475H7.305C7.549 9.475 7.793 9.633 8.037 9.95C8.037 10.761 8.694 11.425 9.497 11.425H12.42V7H5.845C2.63 7 0 9.655 0 12.9V60.1C0 63.345 2.63 66 5.845 66H16C15.27 65.631 14 65 13.1 63.525Z" fill="#198CDE" style="fill:#198CDE;fill:color(display-p3 0.0980 0.5490 0.8706);fill-opacity:1;"/>
<path d="M24 63.533H19.818C17.418 63.533 16.455 62.553 16.455 60.133V5.867C16.455 3.447 17.418 2.467 19.818 2.467H21.273C21.515 2.467 21.758 2.622 22 2.933C22 3.74 22.655 4.4 23.455 4.4H36.545C37.345 4.4 38 3.74 38 2.933C38.242 2.623 38.485 2.467 38.727 2.467H40.182C42.582 2.467 43.545 3.447 43.545 5.867V10H46V5.867C46 2.64 43.382 0 40.182 0H19.818C16.618 0 14 2.64 14 5.867V60.133C14 63.36 16.618 66 19.818 66H26.745C26 66 24 64 24 63.533Z" fill="#198CDE" style="fill:#198CDE;fill:color(display-p3 0.0980 0.5490 0.8706);fill-opacity:1;"/>
<path d="M49.4124 11.7119H30.3794C27.1594 11.7119 24.5234 14.3479 24.5234 17.5689V60.0259C24.5234 63.2469 27.1584 65.8819 30.3794 65.8819H49.4124C52.6324 65.8819 55.2684 63.2469 55.2684 60.0259V17.5699C55.2684 14.3489 52.6334 11.7129 49.4124 11.7129V11.7119ZM35.5034 15.3719H44.2884C44.7274 15.3719 45.0204 15.6649 45.0204 16.1049C45.0204 16.5439 44.7274 16.8369 44.2884 16.8369H35.5034C35.0644 16.8369 34.7714 16.5439 34.7714 16.1049C34.7714 15.6649 35.0644 15.3729 35.5034 15.3729V15.3719ZM39.8954 64.4179C39.1196 64.4155 38.3762 64.1063 37.8277 63.5577C37.2791 63.0091 36.9698 62.2657 36.9674 61.4899C36.9698 60.7141 37.2791 59.9707 37.8277 59.4221C38.3762 58.8735 39.1196 58.5643 39.8954 58.5619C40.6714 58.564 41.4151 58.8732 41.9639 59.4218C42.5127 59.9704 42.8221 60.7139 42.8244 61.4899C42.8221 62.2659 42.5127 63.0094 41.9639 63.5581C41.4151 64.1067 40.6714 64.4158 39.8954 64.4179ZM52.8044 57.0979H26.9874V20.4969H52.8044V57.0979Z" fill="#198CDE" style="fill:#198CDE;fill:color(display-p3 0.0980 0.5490 0.8706);fill-opacity:1;"/>
</svg>

<svg xmlns="http://www.w3.org/2000/svg" width="56" height="66" viewBox="0 0 56 66">
    <g fill="#20A052" fill-rule="nonzero">
        <path d="M13.1 63.525H5.845c-2.411 0-3.384-.991-3.384-3.425V12.9c0-2.434.973-3.425 3.384-3.425h1.46c.244 0 .488.158.732.475 0 .811.657 1.475 1.46 1.475h2.923V7H5.845C2.63 7 0 9.655 0 12.9v47.2C0 63.345 2.63 66 5.845 66H16c-.73-.369-2-1-2.9-2.475z"/>
        <path d="M24 63.533h-4.182c-2.4 0-3.363-.98-3.363-3.4V5.867c0-2.42.963-3.4 3.363-3.4h1.455c.242 0 .485.155.727.466 0 .807.655 1.467 1.455 1.467h13.09c.8 0 1.455-.66 1.455-1.467.242-.31.485-.466.727-.466h1.455c2.4 0 3.363.98 3.363 3.4V10H46V5.867C46 2.64 43.382 0 40.182 0H19.818C16.618 0 14 2.64 14 5.867v54.266C14 63.36 16.618 66 19.818 66h6.927C26 66 24 64 24 63.533z"/>
        <path d="M49.412 11.712H30.379c-3.22 0-5.856 2.636-5.856 5.857v42.457c0 3.221 2.635 5.856 5.856 5.856h19.033c3.22 0 5.856-2.635 5.856-5.856V17.57c0-3.221-2.635-5.857-5.856-5.857zm-13.909 3.66h8.785c.439 0 .732.293.732.733 0 .439-.293.732-.732.732h-8.785c-.439 0-.732-.293-.732-.732 0-.44.293-.732.732-.732zm4.392 49.046a2.937 2.937 0 0 1-2.928-2.928 2.937 2.937 0 0 1 2.928-2.928 2.937 2.937 0 0 1 2.929 2.928 2.937 2.937 0 0 1-2.929 2.928zm12.909-7.32H26.987V20.497h25.817v36.601z"/>
    </g>
</svg>
